assets/img/logo.svg

<svg width="100%" height="100%" viewBox="0 0 338 52" version="1.1" xmlns="http://www.w3.org/2000/svg" xmlns:xlink="http://www.w3.org/1999/xlink" xml:space="preserve" xmlns:serif="http://www.serif.com/" style="fill-rule:evenodd;clip-rule:evenodd;stroke-linejoin:round;stroke-miterlimit:2;">
    <g transform="matrix(1,0,0,1,-817.41,-252.622)">
        <g>
            <g transform="matrix(0.13597,0,0,0.13597,612.965,99.2888)">
                <path d="M3910.96,1381.52C3910.96,1371.66 3914.5,1363.51 3921.58,1357.07C3928.65,1350.63 3938,1347.41 3949.62,1347.41C3961.24,1347.41 3970.59,1350.63 3977.67,1357.07C3984.74,1363.51 3988.28,1371.66 3988.28,1381.52C3988.28,1391.12 3984.74,1399.14 3977.67,1405.58C3970.59,1412.02 3961.24,1415.25 3949.62,1415.25C3938,1415.25 3928.65,1412.02 3921.58,1405.58C3914.5,1399.14 3910.96,1391.12 3910.96,1381.52Z" style="fill:rgb(219,255,0);fill-rule:nonzero;"/>
            </g>
            <path d="M830.589,262.648C833.608,262.648 836.152,263.436 838.222,265.014C840.291,266.591 841.699,268.669 842.445,271.247L842.445,263.004L844.735,263.004L844.735,290.634L842.445,290.634L842.445,282.391C841.699,284.969 840.291,287.047 838.222,288.624C836.152,290.201 833.608,290.99 830.589,290.99C828.011,290.99 825.73,290.422 823.745,289.285C821.761,288.149 820.209,286.504 819.089,284.35C817.97,282.196 817.41,279.677 817.41,276.793C817.41,273.91 817.97,271.4 819.089,269.263C820.209,267.126 821.761,265.489 823.745,264.352C825.73,263.216 828.011,262.648 830.589,262.648ZM831.098,264.683C827.638,264.683 824.881,265.769 822.829,267.94C820.777,270.111 819.751,273.062 819.751,276.793C819.751,280.559 820.768,283.527 822.804,285.698C824.839,287.869 827.604,288.955 831.098,288.955C833.269,288.955 835.219,288.454 836.949,287.454C838.679,286.453 840.028,285.028 840.995,283.179C841.961,281.331 842.445,279.202 842.445,276.793C842.445,274.385 841.961,272.265 840.995,270.433C840.028,268.601 838.679,267.185 836.949,266.184C835.219,265.183 833.269,264.683 831.098,264.683ZM865.037,262.648C868.531,262.648 871.415,263.555 873.688,265.37C875.96,267.185 877.351,269.585 877.86,272.57L875.468,272.57C875.061,270.128 873.908,268.194 872.008,266.769C870.109,265.345 867.768,264.632 864.986,264.632C862.985,264.632 861.153,265.073 859.491,265.955C857.829,266.837 856.489,268.194 855.471,270.026C854.453,271.858 853.945,274.114 853.945,276.793C853.945,279.473 854.453,281.729 855.471,283.561C856.489,285.393 857.829,286.75 859.491,287.632C861.153,288.514 862.985,288.955 864.986,288.955C867.768,288.955 870.109,288.242 872.008,286.818C873.908,285.393 875.061,283.459 875.468,281.017L877.86,281.017C877.351,284.036 875.96,286.453 873.688,288.268C871.415,290.083 868.531,290.99 865.037,290.99C862.425,290.99 860.11,290.422 858.092,289.285C856.073,288.149 854.487,286.512 853.334,284.375C852.181,282.238 851.604,279.711 851.604,276.793C851.604,273.91 852.181,271.4 853.334,269.263C854.487,267.126 856.073,265.489 858.092,264.352C860.11,263.216 862.425,262.648 865.037,262.648ZM895.669,254.71C892.888,254.71 890.954,255.236 889.869,256.287C888.783,257.339 888.24,259.069 888.24,261.477L888.24,263.004L895.669,263.004L895.669,265.09L888.24,265.09L888.24,290.634L885.9,290.634L885.9,265.09L881.625,265.09L881.625,263.004L885.9,263.004L885.9,261.325C885.9,258.373 886.671,256.177 888.215,254.735C889.758,253.294 892.243,252.59 895.669,252.624L895.669,254.71Z" style="fill:rgb(54,47,115);"/>
            <path d="M910.49,261.652C912.692,261.652 914.584,262.151 916.167,263.149C917.749,264.146 918.901,265.505 919.624,267.225L919.624,252.622L928.447,252.622L928.447,290.807L919.624,290.807L919.624,285.595C918.901,287.315 917.749,288.674 916.167,289.671C914.584,290.669 912.692,291.168 910.49,291.168C908.117,291.168 905.993,290.574 904.118,289.388C902.243,288.201 900.764,286.489 899.68,284.253C898.597,282.017 898.055,279.403 898.055,276.41C898.055,273.383 898.597,270.76 899.68,268.541C900.764,266.322 902.243,264.619 904.118,263.433C905.993,262.246 908.117,261.652 910.49,261.652ZM913.329,269.393C911.437,269.393 909.914,270.012 908.762,271.25C907.609,272.489 907.033,274.209 907.033,276.41C907.033,278.612 907.609,280.332 908.762,281.57C909.914,282.809 911.437,283.428 913.329,283.428C915.186,283.428 916.708,282.791 917.895,281.519C919.082,280.246 919.675,278.543 919.675,276.41C919.675,274.243 919.082,272.532 917.895,271.276C916.708,270.02 915.186,269.393 913.329,269.393ZM958.014,275.636C958.014,276.359 957.928,277.15 957.756,278.01L937.787,278.01C937.89,280.177 938.441,281.734 939.438,282.68C940.436,283.626 941.709,284.099 943.257,284.099C944.564,284.099 945.647,283.772 946.507,283.118C947.367,282.465 947.935,281.622 948.21,280.59L957.55,280.59C957.171,282.619 956.346,284.434 955.073,286.034C953.8,287.633 952.183,288.889 950.223,289.8C948.262,290.712 946.077,291.168 943.669,291.168C940.849,291.168 938.346,290.574 936.162,289.388C933.977,288.201 932.266,286.489 931.027,284.253C929.789,282.017 929.17,279.403 929.17,276.41C929.17,273.383 929.78,270.76 931.002,268.541C932.223,266.322 933.934,264.619 936.136,263.433C938.337,262.246 940.849,261.652 943.669,261.652C946.525,261.652 949.036,262.237 951.203,263.407C953.37,264.576 955.047,266.219 956.234,268.335C957.421,270.45 958.014,272.884 958.014,275.636ZM949.087,274.295C949.122,272.403 948.614,270.984 947.565,270.038C946.516,269.092 945.217,268.619 943.669,268.619C942.053,268.619 940.711,269.1 939.645,270.063C938.578,271.027 937.976,272.437 937.839,274.295L949.087,274.295ZM972.05,282.189L978.293,262.014L987.684,262.014L977.468,290.807L966.528,290.807L956.311,262.014L965.703,262.014L972.05,282.189ZM1014.83,275.636C1014.83,276.359 1014.74,277.15 1014.57,278.01L994.599,278.01C994.702,280.177 995.252,281.734 996.25,282.68C997.248,283.626 998.52,284.099 1000.07,284.099C1001.38,284.099 1002.46,283.772 1003.32,283.118C1004.18,282.465 1004.75,281.622 1005.02,280.59L1014.36,280.59C1013.98,282.619 1013.16,284.434 1011.88,286.034C1010.61,287.633 1009,288.889 1007.03,289.8C1005.07,290.712 1002.89,291.168 1000.48,291.168C997.66,291.168 995.158,290.574 992.973,289.388C990.789,288.201 989.078,286.489 987.839,284.253C986.601,282.017 985.982,279.403 985.982,276.41C985.982,273.383 986.592,270.76 987.813,268.541C989.035,266.322 990.746,264.619 992.948,263.433C995.149,262.246 997.66,261.652 1000.48,261.652C1003.34,261.652 1005.85,262.237 1008.01,263.407C1010.18,264.576 1011.86,266.219 1013.05,268.335C1014.23,270.45 1014.83,272.884 1014.83,275.636ZM1005.9,274.295C1005.93,272.403 1005.43,270.984 1004.38,270.038C1003.33,269.092 1002.03,268.619 1000.48,268.619C998.864,268.619 997.523,269.1 996.456,270.063C995.39,271.027 994.788,272.437 994.65,274.295L1005.9,274.295ZM1024.37,252.622L1024.37,290.807L1015.55,290.807L1015.55,252.622L1024.37,252.622ZM1126.66,261.652C1129.04,261.652 1131.16,262.246 1133.04,263.433C1134.91,264.619 1136.39,266.322 1137.47,268.541C1138.56,270.76 1139.1,273.383 1139.1,276.41C1139.1,279.403 1138.56,282.017 1137.47,284.253C1136.39,286.489 1134.91,288.201 1133.04,289.388C1131.16,290.574 1129.04,291.168 1126.66,291.168C1124.46,291.168 1122.57,290.669 1120.99,289.671C1119.4,288.674 1118.25,287.315 1117.53,285.595L1117.53,304.532L1108.71,304.532L1108.71,262.014L1117.53,262.014L1117.53,267.225C1118.25,265.505 1119.4,264.146 1120.99,263.149C1122.57,262.151 1124.46,261.652 1126.66,261.652ZM1123.83,269.393C1121.97,269.393 1120.44,270.02 1119.26,271.276C1118.07,272.532 1117.48,274.243 1117.48,276.41C1117.48,278.543 1118.07,280.246 1119.26,281.519C1120.44,282.791 1121.97,283.428 1123.83,283.428C1125.72,283.428 1127.24,282.809 1128.39,281.57C1129.54,280.332 1130.12,278.612 1130.12,276.41C1130.12,274.209 1129.54,272.489 1128.39,271.25C1127.24,270.012 1125.72,269.393 1123.83,269.393ZM1107.71,276.41C1107.71,284.555 1101.09,291.168 1092.95,291.168L1040.85,291.168C1032.71,291.168 1026.1,284.555 1026.1,276.41C1026.1,268.265 1032.71,261.652 1040.85,261.652L1092.95,261.652C1101.09,261.652 1107.71,268.265 1107.71,276.41ZM1098.73,276.41C1098.73,272.331 1095.41,269.019 1091.34,269.019L1042.41,269.019C1038.33,269.019 1035.02,272.331 1035.02,276.41C1035.02,280.489 1038.33,283.801 1042.41,283.801L1091.34,283.801C1095.41,283.801 1098.73,280.489 1098.73,276.41Z" style="fill:rgb(54,47,115);"/>
        </g>
    </g>
</svg>

<svg xmlns="http://www.w3.org/2000/svg" xml:space="preserve" style="fill-rule:evenodd;clip-rule:evenodd;stroke-linejoin:round;stroke-miterlimit:2" viewBox="0 0 1526 245">
  <path d="M3910.96 1381.52c0-9.86 3.54-18.01 10.62-24.45 7.07-6.44 16.42-9.66 28.04-9.66 11.62 0 20.97 3.22 28.05 9.66 7.07 6.44 10.61 14.59 10.61 24.45 0 9.6-3.54 17.62-10.61 24.06-7.08 6.44-16.43 9.67-28.05 9.67-11.62 0-20.97-3.23-28.04-9.67-7.08-6.44-10.62-14.46-10.62-24.06Z" style="fill:#c3f132;fill-rule:nonzero" transform="matrix(.641 0 0 .641 -1344.17 -722.95)"/>
    <path d="M910.49 261.65c2.2 0 4.1.5 5.68 1.5a8.7 8.7 0 0 1 3.45 4.08v-14.6h8.83v38.18h-8.83v-5.21a8.7 8.7 0 0 1-3.45 4.07c-1.59 1-3.48 1.5-5.68 1.5-2.37 0-4.5-.6-6.37-1.78a12.18 12.18 0 0 1-4.44-5.14 17.8 17.8 0 0 1-1.63-7.84c0-3.03.55-5.65 1.63-7.87a12.2 12.2 0 0 1 4.44-5.1c1.87-1.2 4-1.79 6.37-1.79Zm2.84 7.74c-1.9 0-3.42.62-4.57 1.86-1.15 1.24-1.73 2.96-1.73 5.16s.58 3.92 1.73 5.16a5.94 5.94 0 0 0 4.57 1.86c1.86 0 3.38-.64 4.56-1.91 1.2-1.27 1.78-2.98 1.78-5.11 0-2.17-.59-3.88-1.77-5.13a6 6 0 0 0-4.57-1.89Zm44.68 6.25c0 .72-.08 1.51-.25 2.37h-19.97c.1 2.17.65 3.72 1.65 4.67 1 .95 2.27 1.42 3.82 1.42 1.3 0 2.39-.33 3.25-.98a4.57 4.57 0 0 0 1.7-2.53h9.34a12.21 12.21 0 0 1-2.48 5.44 13.2 13.2 0 0 1-4.85 3.77 15.36 15.36 0 0 1-6.55 1.37c-2.82 0-5.32-.6-7.5-1.78a12.73 12.73 0 0 1-5.14-5.14 15.93 15.93 0 0 1-1.86-7.84c0-3.03.61-5.65 1.83-7.87a12.54 12.54 0 0 1 5.14-5.1 15.62 15.62 0 0 1 7.53-1.79c2.86 0 5.37.59 7.53 1.76a12.4 12.4 0 0 1 5.03 4.92 14.66 14.66 0 0 1 1.78 7.3Zm-8.92-1.34c.03-1.9-.48-3.32-1.52-4.26a5.6 5.6 0 0 0-3.9-1.42c-1.62 0-2.96.48-4.02 1.44-1.07.97-1.67 2.38-1.81 4.24h11.25Zm22.96 7.89 6.24-20.18h9.4l-10.22 28.8h-10.94L956.3 262h9.4l6.34 20.18Zm42.78-6.55c0 .72-.09 1.51-.26 2.37H994.6c.1 2.17.65 3.72 1.65 4.67 1 .95 2.27 1.42 3.82 1.42a5.2 5.2 0 0 0 3.25-.98 4.54 4.54 0 0 0 1.7-2.53h9.34a12.15 12.15 0 0 1-2.48 5.44 13.1 13.1 0 0 1-4.85 3.77 15.33 15.33 0 0 1-6.55 1.37c-2.82 0-5.32-.6-7.5-1.78a12.73 12.73 0 0 1-5.14-5.14 15.93 15.93 0 0 1-1.86-7.84c0-3.03.61-5.65 1.83-7.87a12.55 12.55 0 0 1 5.14-5.1 15.62 15.62 0 0 1 7.53-1.79c2.86 0 5.37.59 7.53 1.76a12.41 12.41 0 0 1 5.04 4.92 14.74 14.74 0 0 1 1.78 7.3Zm-8.93-1.34c.03-1.9-.47-3.32-1.52-4.26a5.61 5.61 0 0 0-3.9-1.42c-1.62 0-2.96.48-4.02 1.44-1.07.97-1.67 2.38-1.81 4.24h11.25Zm18.47-21.68v38.19h-8.82v-38.19h8.82Zm102.29 9.03c2.38 0 4.5.6 6.38 1.78a12.2 12.2 0 0 1 4.43 5.11 17.67 17.67 0 0 1 1.63 7.87c0 3-.54 5.6-1.63 7.84a12.18 12.18 0 0 1-4.43 5.14c-1.88 1.18-4 1.78-6.38 1.78-2.2 0-4.09-.5-5.67-1.5a8.64 8.64 0 0 1-3.46-4.07v18.93h-8.82v-42.52h8.82v5.22a8.64 8.64 0 0 1 3.46-4.08c1.58-1 3.47-1.5 5.67-1.5Zm-2.83 7.74a6 6 0 0 0-4.57 1.89c-1.19 1.25-1.78 2.96-1.78 5.13 0 2.13.59 3.84 1.78 5.1a5.96 5.96 0 0 0 4.57 1.92c1.89 0 3.41-.62 4.56-1.86 1.15-1.24 1.73-2.96 1.73-5.16s-.58-3.92-1.73-5.16a5.93 5.93 0 0 0-4.56-1.86Zm-16.12 7.02c0 8.14-6.62 14.76-14.76 14.76h-52.1a14.76 14.76 0 0 1 0-29.52h52.1c8.14 0 14.76 6.62 14.76 14.76Zm-8.98 0a7.4 7.4 0 0 0-7.39-7.4h-48.93a7.4 7.4 0 0 0 0 14.8h48.93a7.4 7.4 0 0 0 7.39-7.4Z" style="fill:#19233c" transform="matrix(4.715 0 0 4.715 -4234.2 -1191.08)"/>
    <path d="M198.56 521.53V540h-9.27c-7.63 0-13.33-3.08-17.1-9.24-3.77-6.15-5.66-16.47-5.66-30.93v-68.34h-11.17v-18.24h11.17v-31.62h12.54v31.63h19.35v18.23h-19.35v68.8c0 8.16.88 13.74 2.66 16.74 1.77 3 4.83 4.5 9.2 4.5h7.63ZM253.07 411.18c8.72 0 15.76 4.73 21.12 14.2 5.36 9.46 8.04 23.12 8.04 40.97V540h-12.4v-71.8c0-12.62-1.9-22.32-5.72-29.09s-9-10.16-15.54-10.16c-6.81 0-12.26 3.74-16.35 11.2-4.1 7.47-6.14 18.35-6.14 32.67V540h-12.4V369.16h12.4v74.1c1.91-10.3 5.3-18.23 10.16-23.77 4.86-5.54 10.47-8.31 16.83-8.31ZM370.13 469.58c0 4.47-.18 8.32-.55 11.55h-59.82c.27 14.47 2.7 25.32 7.29 32.55 4.59 7.23 10.2 10.85 16.83 10.85 6 0 11.02-2.58 15.06-7.73 4.04-5.16 6.52-12.05 7.43-20.67h13.21c-.9 8.78-2.93 16.63-6.06 23.55-3.13 6.93-7.2 12.31-12.2 16.16a26.98 26.98 0 0 1-16.9 5.77c-7.17 0-13.53-2.61-19.07-7.85-5.55-5.23-9.88-12.73-13.02-22.5-3.13-9.78-4.7-21.28-4.7-34.52 0-13.23 1.57-24.78 4.7-34.63 3.14-9.85 7.47-17.39 13.02-22.62 5.54-5.23 11.9-7.85 19.07-7.85 7.27 0 13.61 2.62 19.02 7.85 5.4 5.23 9.54 12.23 12.4 21 2.86 8.78 4.29 18.48 4.29 29.1Zm-12.54 1.39c.28-9.39-.63-17.24-2.72-23.55-2.1-6.3-4.95-11-8.59-14.08-3.63-3.08-7.58-4.62-11.85-4.62-6.82 0-12.54 3.58-17.18 10.74-4.63 7.16-7.13 17.66-7.5 31.51h47.84ZM478.33 411.18c8.73 0 15.74 4.73 21.06 14.2 5.31 9.46 7.97 23.12 7.97 40.97V540h-12.4v-71.8c0-12.47-1.8-22-5.38-28.63-3.6-6.62-8.52-9.92-14.79-9.92-6.54 0-11.79 3.65-15.74 10.96-3.95 7.31-5.93 18.05-5.93 32.2V540h-12.4v-71.8c0-12.47-1.82-22-5.45-28.63-3.63-6.62-8.54-9.92-14.72-9.92-6.63 0-11.92 3.65-15.87 10.96-3.96 7.31-5.93 18.05-5.93 32.2V540h-12.4V413.25h12.4v28.86c1.81-10 5.06-17.66 9.74-22.97 4.68-5.3 10.06-7.96 16.15-7.96 6.36 0 11.88 2.73 16.56 8.2 4.68 5.46 8.02 13.5 10.01 24.12 2.1-10.31 5.6-18.28 10.5-23.9 4.9-5.61 10.45-8.42 16.62-8.42ZM595.4 469.58c0 4.47-.18 8.32-.55 11.55h-59.82c.27 14.47 2.7 25.32 7.29 32.55 4.58 7.23 10.2 10.85 16.83 10.85 6 0 11.01-2.58 15.06-7.73 4.04-5.16 6.51-12.05 7.42-20.67h13.22c-.9 8.78-2.93 16.63-6.06 23.55-3.14 6.93-7.2 12.31-12.2 16.16a26.99 26.99 0 0 1-16.9 5.77c-7.18 0-13.54-2.61-19.08-7.85-5.54-5.23-9.88-12.73-13.01-22.5-3.14-9.78-4.7-21.28-4.7-34.52 0-13.23 1.56-24.78 4.7-34.63 3.13-9.85 7.47-17.39 13.01-22.62s11.9-7.85 19.08-7.85c7.27 0 13.6 2.62 19.01 7.85 5.4 5.23 9.54 12.23 12.4 21 2.87 8.78 4.3 18.48 4.3 29.1Zm-12.54 1.39c.27-9.39-.64-17.24-2.73-23.55-2.09-6.3-4.95-11-8.58-14.08-3.64-3.08-7.59-4.62-11.86-4.62-6.81 0-12.54 3.58-17.17 10.74-4.63 7.16-7.13 17.66-7.5 31.51h47.84Z" style="fill:#19233c;fill-rule:nonzero" transform="matrix(.622 0 0 .367 1155.39 -14.86)"/>
</svg>
